svg/fluentui-system-icons/ic_fluent_image_border_28_filled.svg

<svg width="28" height="28" viewBox="0 0 28 28" fill="none" xmlns="http://www.w3.org/2000/svg">
<path d="M12.5858 14.5858L8 19.1716V8H20V19.1716L15.4142 14.5858C14.6332 13.8047 13.3668 13.8047 12.5858 14.5858ZM17 9.5C16.1716 9.5 15.5 10.1716 15.5 11C15.5 11.8284 16.1716 12.5 17 12.5C17.8284 12.5 18.5 11.8284 18.5 11C18.5 10.1716 17.8284 9.5 17 9.5ZM14.3536 15.6464L18.7071 20H9.29289L13.6464 15.6464C13.8417 15.4512 14.1583 15.4512 14.3536 15.6464ZM3 6.75C3 4.67893 4.67893 3 6.75 3H21.25C23.3211 3 25 4.67893 25 6.75V21.25C25 23.3211 23.3211 25 21.25 25H6.75C4.67893 25 3 23.3211 3 21.25V6.75ZM7.25 6.5C6.83579 6.5 6.5 6.83579 6.5 7.25V20.75C6.5 21.1642 6.83579 21.5 7.25 21.5H20.75C21.1642 21.5 21.5 21.1642 21.5 20.75V7.25C21.5 6.83579 21.1642 6.5 20.75 6.5H7.25Z" fill="#212121"/>
</svg>

<svg xmlns="http://www.w3.org/2000/svg" width="28" height="28"><path d="M12.586 14.586 8 19.172V8h12v11.172l-4.586-4.586a2 2 0 0 0-2.828 0ZM17 9.5a1.5 1.5 0 1 0 0 3 1.5 1.5 0 0 0 0-3Zm-2.646 6.146L18.707 20H9.293l4.353-4.354a.5.5 0 0 1 .708 0ZM3 6.75A3.75 3.75 0 0 1 6.75 3h14.5A3.75 3.75 0 0 1 25 6.75v14.5A3.75 3.75 0 0 1 21.25 25H6.75A3.75 3.75 0 0 1 3 21.25V6.75Zm4.25-.25a.75.75 0 0 0-.75.75v13.5c0 .414.336.75.75.75h13.5a.75.75 0 0 0 .75-.75V7.25a.75.75 0 0 0-.75-.75H7.25Z"/></svg>
